site/static/images/icons/svg/deployment.svg

<svg height="140" viewBox="0 0 140 140" width="140" xmlns="http://www.w3.org/2000/svg"><g fill="none" fill-rule="evenodd" transform="translate(-120 -1142)"><circle cx="190" cy="1212" fill="#8492a6" r="70"/><path d="m218.258929 1199.21429c.44643 0 .848212.15624 1.205357.46875.357144.3125.535714.69196.535714 1.13839v24.50893c0 1.16072-.624994 2.14285-1.875 2.94643v.13392l-23.4375 12.32143v.13393c-.178572.08929-.446427.13393-.803571.13393-.446431 0-.848213-.15625-1.205358-.46875-.357144-.3125-.535714-.69196-.535714-1.13839v-24.77679c0-1.25.580351-2.23214 1.741072-2.94643l.401785-.26785 23.035715-11.91965.267857-.13393c.178572-.08928.401784-.13392.669643-.13392zm-1.741072-6.5625c.714289.26785 1.071429.66964 1.071429 1.20535 0 .26786-.089285.53572-.267857.80357-.178573.26786-.357142.44643-.535715.53572l-.267857.13393-24.508928 12.99107-.267858.13393c-.535717.26786-1.116068.40178-1.741071.40178s-1.205354-.13392-1.741071-.40178l-.267858-.13393-24.508928-12.85714c-.714289-.44644-1.071429-.98214-1.071429-1.60715 0-.26786.089285-.49107.267857-.66964.178573-.17857.357142-.3125.535715-.40179l.267857-.13392 24.241071-10.98215c.982148-.44643 1.741069-.66964 2.276786-.66964l2.276786.66964zm-30.401786 19.01785c1.160721.71429 1.741072 1.69643 1.741072 2.94643v24.77679c0 .44643-.17857.82589-.535714 1.13839-.357145.3125-.758927.46875-1.205358.46875-.178572 0-.446426-.08928-.803571-.26786l-23.4375-12.32143v-.13392c-1.250006-.80358-1.875-1.78571-1.875-2.94643v-24.50893c0-.44643.17857-.82589.535714-1.13839.357145-.31251.758927-.46875 1.205357-.46875.357145 0 .580357.04464.669643.13392l.267857.13393 22.901786 11.91965z" fill="#fff"/></g></svg>

<svg xmlns="http://www.w3.org/2000/svg" xmlns:xlink="http://www.w3.org/1999/xlink" width="140" height="140" version="1.1" viewBox="0 0 140 140"><title>Deployment</title><desc>Created with Sketch.</desc><g id="icons" fill="none" fill-rule="evenodd" stroke="none" stroke-width="1" transform="translate(-120.000000, -1142.000000)"><g id="Deployment" fill="#8492A6" transform="translate(120.000000, 1142.000000)"><g id="Info"><circle id="Oval" cx="70" cy="70" r="70"/></g></g><path id="ion-cube---Ionicons" fill="#FFF" d="M218.258929,1199.21429 C218.705359,1199.21429 219.107141,1199.37053 219.464286,1199.68304 C219.82143,1199.99554 220,1200.375 220,1200.82143 L220,1225.33036 C220,1226.49108 219.375006,1227.47321 218.125,1228.27679 L218.125,1228.41071 L194.6875,1240.73214 L194.6875,1240.86607 C194.508928,1240.95536 194.241073,1241 193.883929,1241 C193.437498,1241 193.035716,1240.84375 192.678571,1240.53125 C192.321427,1240.21875 192.142857,1239.83929 192.142857,1239.39286 L192.142857,1214.61607 C192.142857,1213.36607 192.723208,1212.38393 193.883929,1211.66964 L194.285714,1211.40179 L217.321429,1199.48214 L217.589286,1199.34821 C217.767858,1199.25893 217.99107,1199.21429 218.258929,1199.21429 Z M216.517857,1192.65179 C217.232146,1192.91964 217.589286,1193.32143 217.589286,1193.85714 C217.589286,1194.125 217.500001,1194.39286 217.321429,1194.66071 C217.142856,1194.92857 216.964287,1195.10714 216.785714,1195.19643 L216.517857,1195.33036 L192.008929,1208.32143 L191.741071,1208.45536 C191.205354,1208.72322 190.625003,1208.85714 190,1208.85714 C189.374997,1208.85714 188.794646,1208.72322 188.258929,1208.45536 L187.991071,1208.32143 L163.482143,1195.46429 C162.767854,1195.01785 162.410714,1194.48215 162.410714,1193.85714 C162.410714,1193.58928 162.499999,1193.36607 162.678571,1193.1875 C162.857144,1193.00893 163.035713,1192.875 163.214286,1192.78571 L163.482143,1192.65179 L187.723214,1181.66964 C188.705362,1181.22321 189.464283,1181 190,1181 L192.276786,1181.66964 L216.517857,1192.65179 Z M186.116071,1211.66964 C187.276792,1212.38393 187.857143,1213.36607 187.857143,1214.61607 L187.857143,1239.39286 C187.857143,1239.83929 187.678573,1240.21875 187.321429,1240.53125 C186.964284,1240.84375 186.562502,1241 186.116071,1241 C185.937499,1241 185.669645,1240.91072 185.3125,1240.73214 L161.875,1228.41071 L161.875,1228.27679 C160.624994,1227.47321 160,1226.49108 160,1225.33036 L160,1200.82143 C160,1200.375 160.17857,1199.99554 160.535714,1199.68304 C160.892859,1199.37053 161.294641,1199.21429 161.741071,1199.21429 C162.098216,1199.21429 162.321428,1199.25893 162.410714,1199.34821 L162.678571,1199.48214 L185.580357,1211.40179 L186.116071,1211.66964 Z"/></g></svg>
